dist/img/logo.svg

<svg width="344" height="52" viewBox="0 0 344 52" fill="none" xmlns="http://www.w3.org/2000/svg">
<path d="M130.587 12.437H136.779L143.796 30.903L150.814 12.437H157.005L146.273 38.7H141.319L130.587 12.437Z" fill="white"/>
<path d="M168.976 12.437H174.342L185.488 38.7H179.296L176.819 32.955H165.674L163.197 38.7H157.831L168.976 12.437ZM175.168 27.62L171.453 19.413L168.151 28.031H175.168V27.62Z" fill="white"/>
<path d="M192.505 12.437H204.476C207.778 12.437 210.255 13.258 211.906 14.899C213.557 16.541 213.97 18.182 213.97 21.055C213.97 25.158 211.494 28.031 208.191 29.262L214.383 38.7H207.778L201.999 30.493H197.459V38.7H191.68V12.437H192.505ZM204.063 25.158C206.953 25.158 208.604 23.517 208.604 21.465C208.604 19.003 206.953 17.772 204.063 17.772H198.284V25.158H204.063Z" fill="white"/>
<path d="M230.894 12.437H236.261L247.407 38.7H241.627L239.151 32.955H228.005L225.529 38.7H219.75L230.894 12.437ZM237.086 27.62L233.784 19.003L230.482 27.62H237.086Z" fill="white"/>
<path d="M254.423 12.437H260.615L267.632 23.517L274.65 12.437H280.841V38.29H274.65V21.465L267.22 32.545L259.79 21.465V38.29H254.01V12.437H254.423Z" fill="white"/>
<path d="M298.591 12.437H303.958L315.103 38.7H308.911L306.434 32.955H295.289L292.812 38.7H287.033L298.591 12.437ZM304.371 27.62L301.068 19.003L297.766 27.62H304.371Z" fill="white"/>
<path d="M321.707 12.437H333.679C336.98 12.437 339.458 13.258 341.109 14.899C342.76 16.541 343.172 18.182 343.172 21.055C343.172 25.158 340.696 28.031 337.393 29.262L343.585 38.7H336.98L331.202 30.493H326.661V38.7H320.882V12.437H321.707ZM333.266 25.158C336.155 25.158 337.806 23.517 337.806 21.465C337.806 19.003 336.155 17.772 333.266 17.772H327.487V25.158H333.266Z" fill="white"/>
<path d="M39.1951 29.9556C40.8513 28.1263 42.6914 26.2969 44.7155 24.6505C45.6356 23.9188 46.5557 23.0041 47.6598 22.4553C48.2116 22.0894 48.5796 21.9065 49.1321 21.5406C49.684 21.3577 50.052 20.9918 50.604 20.9918C51.7079 20.626 52.8123 20.443 53.7323 20.443C54.2842 20.443 54.8362 20.443 55.3882 20.443C55.5726 20.443 55.9406 20.443 56.1246 20.626C56.3086 20.626 56.4926 20.626 56.6765 20.8089C56.8605 20.8089 56.8605 20.8089 57.2285 20.8089C57.2285 20.8089 57.4125 20.8089 57.7805 20.8089C57.9645 20.8089 57.5965 20.8089 58.5164 20.626C59.0689 20.0772 59.4368 20.443 59.9888 18.7966C59.9888 16.7843 59.4368 16.7843 59.4368 16.7843C59.2529 16.6014 59.0689 16.4184 59.0689 16.4184C58.8849 16.4184 58.8849 16.2355 58.7004 16.2355L58.3324 16.0526L57.7805 15.8696C57.4125 15.6867 57.0445 15.6867 56.6765 15.5037L55.7566 15.1379C55.5726 15.1379 55.3881 14.9549 55.2042 14.9549C54.4682 14.5891 53.7323 14.0403 53.1803 13.3085C52.6283 12.5768 52.0759 11.6621 51.5239 10.5645C51.3399 10.0157 51.1559 9.46688 50.788 8.73517C50.236 7.82046 50.052 7.27165 49.684 6.53994C48.9481 5.25937 48.2116 3.97884 46.9237 2.88123C47.2918 2.88123 47.4757 3.06416 47.8437 3.06416C48.9481 3.43004 50.052 3.97884 51.1559 4.71057C53.1803 5.99113 54.8362 7.82046 56.1246 10.0157C56.8605 11.1133 57.4125 12.2109 57.9645 13.4915L58.5164 14.4061C58.7004 14.772 58.7004 14.9549 59.4368 15.5037C59.8048 15.6867 60.1728 15.8696 60.7248 15.8696C60.9088 15.8696 61.2767 15.8696 61.6447 15.6867C61.8287 15.6867 62.0127 15.5038 62.0127 15.3208C62.0127 15.1379 62.1967 14.9549 62.1967 14.772C62.1967 14.5891 62.1967 14.4061 62.0127 14.2232C61.6447 13.6744 61.4607 13.8573 61.2767 13.6744H61.0927C61.0927 13.6744 61.0927 13.6744 60.9088 13.6744C60.9088 13.6744 60.7248 13.6744 60.7248 13.4915L60.9088 13.3085L61.6447 12.7597C62.7491 12.028 63.853 11.2962 64.957 10.7474C66.9813 9.28397 69.3737 8.18636 71.7655 7.27165C76.5502 5.44233 81.7023 4.52764 86.6709 4.71057C89.2468 4.71057 91.6391 5.07647 94.2154 5.62528C94.9514 5.80818 95.5033 5.80818 96.2398 5.99113C96.4238 5.99113 96.6078 5.99113 96.9757 5.99113C97.1597 5.99113 97.3437 5.99113 97.7117 5.80818C97.5277 5.99113 97.1597 6.35699 96.9757 6.53994L94.0314 9.10102C92.3751 10.7474 90.1672 12.028 88.1429 13.4915C87.4069 14.0403 86.487 14.4061 85.7505 14.9549C85.1986 15.3208 84.8306 15.5037 84.2786 15.6867C83.7267 15.8696 83.3587 16.0526 82.8067 16.2355C82.2543 16.4184 81.7023 16.6014 81.1503 16.7843C80.5984 16.9672 80.0464 17.1502 79.3105 17.3331C78.942 17.3331 78.574 17.516 78.39 17.699C77.8381 17.8819 76.5502 18.2478 75.8142 18.7966C75.0778 19.3454 74.3418 19.8942 73.6059 20.8089C73.4219 20.9918 73.4219 20.9918 73.2379 21.1748C73.2379 21.3577 73.0539 21.3577 73.0539 21.5406L72.6859 21.9065C72.6859 21.9065 72.5019 22.2723 72.5019 22.4553C72.5019 22.6382 72.3175 23.0041 72.5019 23.5529C72.5019 23.9188 72.8699 24.8335 73.6059 25.3823C74.1578 25.9311 74.7098 25.9311 75.2618 26.114C75.6297 26.114 75.8142 26.114 75.9982 26.114C76.7341 25.9311 76.9181 25.9311 77.1021 25.7481C77.8381 25.3823 78.0221 25.1993 78.39 25.0164C79.126 24.4676 79.4944 24.1017 80.0464 23.5529C80.2304 23.3699 81.1503 23.0041 82.4383 22.6382C82.9907 22.4553 83.5427 22.2724 84.2786 22.0894L83.5427 22.8211C81.7023 24.6505 79.8624 26.4799 78.0221 28.1263C74.1578 31.602 70.2936 34.8949 66.0614 38.0048C64.037 39.4682 61.8287 40.9318 59.6208 42.0294C57.4125 42.944 54.8362 44.0416 52.2603 43.6758L52.0759 44.2246C54.8362 44.9563 57.5965 44.2246 59.9888 43.3099C62.5651 42.3952 64.957 41.1147 67.1653 39.8341C71.7655 37.0901 75.8142 33.9802 80.0464 30.6874C84.2786 27.3945 88.1429 24.1017 92.1911 20.626C94.2154 18.7966 96.2398 17.3331 98.0797 15.3208C98.9996 14.4061 99.92 13.4915 100.84 12.3939C101.208 11.8451 101.76 11.4792 102.128 10.9304L103.048 9.83278L103.416 9.28397L103.6 8.91807C103.784 8.73517 103.784 8.73517 103.968 8.00341C103.968 7.63755 104.152 7.82046 103.968 6.90579C103.784 6.17408 103.6 5.80818 103.232 5.44233C103.232 5.07647 103.232 4.89352 103.232 4.52765C103.232 4.16178 103.048 3.61297 102.864 3.2471C102.496 2.33242 101.576 1.78362 101.024 1.60068C99.736 1.23481 98.8156 1.23481 97.8957 1.41775C97.5277 1.41775 96.9757 1.60068 96.6078 1.78362H96.4238C96.4238 1.78362 96.4238 1.78362 96.2398 1.78362C95.6873 1.78362 95.1354 1.78362 94.3994 1.60068C92.0071 1.41775 89.2468 1.23481 86.487 1.41775C80.9664 1.78362 75.8142 3.2471 70.8456 5.44233C68.4532 6.53994 66.2454 7.82046 63.853 9.10102C62.7491 9.83278 61.6447 10.5645 60.5408 11.2962L59.8048 11.8451L59.4368 12.2109C59.4368 12.2109 59.4368 12.2109 59.2529 12.2109C58.7004 11.1133 58.1485 9.83278 57.5965 8.73517C57.0445 7.63755 56.3086 6.53994 55.3882 5.44233C54.4682 4.34471 53.3643 3.43004 52.2603 2.69829C51.1559 1.96655 49.868 1.23481 48.5796 0.686008C47.8437 0.503071 47.1077 0.137202 46.3717 0.137202C45.6356 -0.0457338 44.8996 -0.0457338 43.7954 0.137202C43.4274 0.320136 43.2434 0.320136 42.8754 0.686008C42.5074 0.86894 42.3233 1.41775 42.1394 1.96655C41.9553 2.33242 41.9553 2.88123 42.1394 3.43004C42.3233 3.97884 42.5074 4.16178 42.8754 4.52765C43.6115 5.25937 44.3475 5.44233 44.1635 5.62528C44.7155 6.35699 45.2676 7.27165 45.6356 8.36926C45.8196 8.91807 46.0036 9.46688 46.1877 10.0157C46.3717 10.5645 46.5557 11.2962 46.7397 12.028C47.2918 13.4915 47.8437 14.772 48.7641 16.0526C48.9481 16.2355 49.1321 16.6014 49.3161 16.7843C49.1321 16.7843 48.9481 16.7843 48.9481 16.9672C46.0036 18.2478 43.9795 20.0772 42.1394 22.0894C40.2992 24.1017 38.6431 26.2969 37.3549 28.4922C36.0669 30.6874 34.5947 33.0655 34.0427 35.8095L34.5947 35.9925C35.6989 33.7973 37.539 31.785 39.1951 29.9556ZM96.4238 1.78362C96.4238 1.78362 96.6078 1.78362 96.4238 1.78362V1.78362ZM44.8996 3.06416C44.7155 3.06416 44.8996 3.06416 44.8996 3.06416V3.06416Z" fill="white"/>
<path d="M93.8474 33.6141C88.8788 34.1629 83.9106 36.1752 79.8624 39.468C78.758 40.3827 78.0221 41.1144 77.1021 41.6632C76.1822 42.395 75.2618 42.9438 74.3418 43.6755C72.5014 44.9561 70.4776 45.8707 68.2692 46.7855C64.037 48.4321 59.4368 49.5296 54.8362 49.7123C50.236 49.8951 45.4515 49.1636 41.4032 46.7855C37.3549 44.2243 33.3066 41.4803 28.5222 39.8339C26.13 39.1022 23.5539 38.7363 20.9776 38.9192C18.4014 39.1022 15.8252 39.8339 13.6171 40.5656C9.38474 42.0291 4.78437 42.7609 0 41.6632V42.0291C2.02416 43.3097 4.60036 44.0414 6.99256 44.2243C9.56873 44.4073 12.145 44.0414 14.5371 43.3097C18.9535 41.8462 23.3698 41.4803 27.9702 42.0291C30.1783 42.395 32.5705 43.1268 34.5947 44.0414C36.8029 44.9561 38.827 46.2366 40.8512 47.5173C45.0835 50.2611 49.868 51.5419 54.8362 51.9079C59.8048 52.2734 64.773 51.5419 69.5576 49.8951C71.9495 48.9808 74.1578 48.0661 76.3662 46.7855C77.4701 46.0537 78.574 45.5049 79.4944 44.7731C80.5984 44.0414 81.5183 43.1268 82.2543 42.395C85.7505 39.468 89.7992 37.4557 94.2154 36.5411C98.6316 35.6264 103.416 35.4435 108.016 36.3581L108.2 35.9923C103.968 33.797 98.8156 33.0653 93.8474 33.6141Z" fill="white"/>
</svg>

<svg width="344" height="52" fill="none" xmlns="http://www.w3.org/2000/svg"><path d="M130.587 12.437h6.192l7.017 18.466 7.018-18.466h6.191L146.273 38.7h-4.954l-10.732-26.263zm38.389 0h5.366L185.488 38.7h-6.192l-2.477-5.745h-11.145l-2.477 5.745h-5.366l11.145-26.263zm6.192 15.183l-3.715-8.207-3.302 8.618h7.017v-.411zm17.337-15.183h11.971c3.302 0 5.779.821 7.43 2.462 1.651 1.642 2.064 3.283 2.064 6.156 0 4.103-2.476 6.976-5.779 8.207l6.192 9.438h-6.605l-5.779-8.207h-4.54V38.7h-5.779V12.437h.825zm11.558 12.721c2.89 0 4.541-1.641 4.541-3.693 0-2.462-1.651-3.693-4.541-3.693h-5.779v7.386h5.779zm26.831-12.721h5.367L247.407 38.7h-5.78l-2.476-5.745h-11.146l-2.476 5.745h-5.779l11.144-26.263zm6.192 15.183l-3.302-8.617-3.302 8.617h6.604zm17.337-15.183h6.192l7.017 11.08 7.018-11.08h6.191V38.29h-6.191V21.465l-7.43 11.08-7.43-11.08V38.29h-5.78V12.437h.413zm44.168 0h5.367L315.103 38.7h-6.192l-2.477-5.745h-11.145l-2.477 5.745h-5.779l11.558-26.263zm5.78 15.183l-3.303-8.617-3.302 8.617h6.605zm17.336-15.183h11.972c3.301 0 5.779.821 7.43 2.462 1.651 1.642 2.063 3.283 2.063 6.156 0 4.103-2.476 6.976-5.779 8.207l6.192 9.438h-6.605l-5.778-8.207h-4.541V38.7h-5.779V12.437h.825zm11.559 12.721c2.889 0 4.54-1.641 4.54-3.693 0-2.462-1.651-3.693-4.54-3.693h-5.779v7.386h5.779zM39.195 29.956c1.656-1.83 3.496-3.66 5.52-5.305.92-.732 1.84-1.647 2.945-2.196.552-.366.92-.548 1.472-.914.552-.183.92-.55 1.472-.55 1.104-.365 2.208-.548 3.128-.548h1.656c.185 0 .553 0 .737.183.184 0 .368 0 .551.183h1.105c.184 0-.184 0 .735-.183.553-.549.92-.183 1.473-1.83 0-2.012-.552-2.012-.552-2.012l-.368-.366c-.184 0-.184-.183-.369-.183l-.368-.182-.551-.183c-.368-.183-.736-.183-1.105-.366l-.92-.366c-.183 0-.368-.183-.552-.183-.736-.366-1.472-.915-2.024-1.646-.552-.732-1.104-1.647-1.656-2.744-.184-.55-.368-1.098-.736-1.83-.552-.915-.736-1.463-1.104-2.195-.736-1.28-1.472-2.561-2.76-3.659.368 0 .552.183.92.183 1.104.366 2.208.915 3.312 1.647 2.024 1.28 3.68 3.11 4.969 5.305.736 1.097 1.288 2.195 1.84 3.476l.551.914c.184.366.184.549.92 1.098.369.183.737.366 1.289.366.184 0 .552 0 .92-.183.184 0 .368-.183.368-.366s.184-.366.184-.549c0-.183 0-.366-.184-.549-.368-.549-.552-.366-.736-.549h-.368s-.184 0-.184-.182l.184-.184.736-.548c1.104-.732 2.208-1.464 3.312-2.013 2.024-1.463 4.417-2.56 6.809-3.475 4.784-1.83 9.936-2.744 14.905-2.561 2.576 0 4.968.365 7.544.914.736.183 1.288.183 2.025.366h.736c.184 0 .368 0 .736-.183l-.736.732L94.03 9.1c-1.656 1.646-3.864 2.927-5.888 4.39-.736.55-1.656.915-2.392 1.464-.552.366-.92.549-1.472.732-.552.183-.92.366-1.472.548l-1.657.55c-.552.182-1.104.365-1.84.548a1.41 1.41 0 00-.92.366c-.552.183-1.84.549-2.576 1.098-.736.548-1.472 1.097-2.208 2.012l-.368.366c0 .183-.184.183-.184.366l-.368.366s-.184.365-.184.548c0 .183-.184.55 0 1.098 0 .366.368 1.28 1.104 1.83.552.548 1.104.548 1.656.731h.736c.736-.183.92-.183 1.104-.366.736-.366.92-.549 1.288-.732.736-.548 1.104-.914 1.656-1.463.184-.183 1.104-.549 2.392-.915.553-.183 1.105-.366 1.84-.549l-.735.732c-1.84 1.83-3.68 3.659-5.52 5.305-3.865 3.476-7.73 6.769-11.962 9.879-2.024 1.463-4.232 2.927-6.44 4.024-2.209.915-4.785 2.013-7.36 1.647l-.185.549c2.76.731 5.52 0 7.913-.915 2.576-.915 4.968-2.195 7.176-3.476 4.6-2.744 8.65-5.854 12.881-9.147 4.233-3.293 8.097-6.585 12.145-10.061 2.024-1.83 4.049-3.293 5.889-5.305.92-.915 1.84-1.83 2.76-2.927.368-.549.92-.915 1.288-1.464l.92-1.097.368-.549.184-.366c.184-.183.184-.183.368-.915 0-.365.184-.183 0-1.097-.184-.732-.368-1.098-.736-1.464v-.914c0-.366-.184-.915-.368-1.28-.368-.916-1.288-1.464-1.84-1.647-1.288-.366-2.208-.366-3.128-.183-.368 0-.92.183-1.288.366h-.368c-.553 0-1.105 0-1.84-.183-2.393-.183-5.153-.366-7.913-.183-5.52.366-10.673 1.83-15.641 4.024-2.393 1.098-4.6 2.378-6.993 3.659l-3.312 2.195-.736.55-.368.365h-.184c-.553-1.098-1.105-2.378-1.657-3.476-.551-1.097-1.287-2.195-2.208-3.293-.92-1.097-2.024-2.012-3.128-2.744-1.104-.731-2.392-1.463-3.68-2.012-.736-.183-1.472-.549-2.208-.549-.736-.183-1.472-.183-2.577 0-.368.183-.552.183-.92.549-.368.183-.552.732-.736 1.28-.184.366-.184.915 0 1.464.184.549.368.732.736 1.098.736.731 1.472.914 1.288 1.097a9.677 9.677 0 011.473 2.744l.552 1.647c.184.549.368 1.28.552 2.012.552 1.463 1.104 2.744 2.024 4.025.184.182.368.548.552.731-.184 0-.368 0-.368.183-2.944 1.28-4.968 3.11-6.809 5.122-1.84 2.013-3.496 4.208-4.784 6.403-1.288 2.195-2.76 4.573-3.312 7.317l.552.184c1.104-2.196 2.944-4.208 4.6-6.037zM96.424 1.784s.184 0 0 0zM44.9 3.064c-.184 0 0 0 0 0z" fill="#fff"/><path d="M93.847 33.614a27.08 27.08 0 00-13.985 5.854c-1.104.915-1.84 1.646-2.76 2.195-.92.732-1.84 1.28-2.76 2.013-1.84 1.28-3.864 2.195-6.073 3.11-4.232 1.646-8.832 2.744-13.433 2.926-4.6.183-9.384-.548-13.433-2.927-4.048-2.56-8.096-5.305-12.88-6.951-2.393-.732-4.97-1.098-7.545-.915-2.577.183-5.153.915-7.36 1.647C9.384 42.029 4.783 42.76 0 41.663v.366c2.024 1.28 4.6 2.012 6.993 2.195 2.576.183 5.152-.183 7.544-.914 4.416-1.464 8.833-1.83 13.433-1.28a27.73 27.73 0 016.625 2.011c2.208.915 4.232 2.196 6.256 3.476 4.233 2.744 9.017 4.025 13.985 4.39 4.969.366 9.937-.365 14.722-2.012 2.391-.914 4.6-1.829 6.808-3.11 1.104-.731 2.208-1.28 3.128-2.012 1.104-.732 2.024-1.646 2.76-2.378 3.496-2.927 7.545-4.94 11.961-5.854 4.417-.915 9.201-1.097 13.801-.183l.184-.366c-4.232-2.195-9.384-2.927-14.353-2.378z" fill="#fff"/></svg>
